src/icons/division.svg

<svg xmlns="http://www.w3.org/2000/svg" width="512" height="512" viewBox="0 0 512 512">
    <path d="M375.4 392.5c-6.5 0-12-2.4-16.7-7-4.6-4.6-7-10.2-7-16.7 0-6.7 2.4-12.3 7-16.8 4.6-4.6 10.2-6.8 16.7-6.8 6.7 0 12.3 2.3 16.8 6.8 4.6 4.6 6.8 10.1 6.8 16.8 0 6.5-2.3 12-6.8 16.7-4.5 4.8-10.1 7-16.8 7zm-119.2 0c-6.5 0-12-2.4-16.7-7-4.6-4.6-7-10.2-7-16.7 0-6.7 2.4-12.3 7-16.8s10.2-6.8 16.7-6.8 12 2.3 16.7 6.8c4.6 4.6 7 10.1 7 16.8 0 6.5-2.4 12-7 16.7-4.7 4.8-10.2 7-16.7 7zm-119.1 0c-6.7 0-12.3-2.4-16.8-7-4.6-4.6-6.8-10.2-6.8-16.7 0-6.7 2.3-12.3 6.8-16.8s10.1-6.8 16.8-6.8c6.5 0 12 2.3 16.5 6.8 4.6 4.6 6.8 10.1 6.8 16.8 0 6.5-2.3 12-6.8 16.7-4.7 4.8-10.1 7-16.5 7zm119.1-286c6.5 0 12 2.3 16.7 6.8 4.6 4.6 7 10.1 7 16.8 0 6.5-2.4 12-7 16.7-4.6 4.6-10.2 7-16.7 7s-12-2.4-16.7-7c-4.6-4.6-7-10.2-7-16.7 0-6.7 2.4-12.3 7-16.8 4.8-4.5 10.3-6.8 16.7-6.8zm136.6 225.2v-39.6c0-16.4-5.8-30.4-17.5-42.1-11.7-11.7-25.8-17.5-42.5-17.5h-34c-7.1 0-13.1-2.5-18.2-7.5-5-5-7.5-11-7.5-18.2v-39.6c7.1-3.1 12.9-8 17.3-14.6s6.7-14.1 6.7-22.3c0-11.3-4-21-12-28.9-8-8-17.6-12-28.9-12-11.3 0-21 4-28.9 12-8.1 7.9-12.1 17.6-12.1 28.9 0 8.2 2.2 15.7 6.7 22.3 4.5 6.7 10.2 11.6 17.3 14.6v39.6c0 7.1-2.5 13.1-7.5 18.2-5 5-11 7.5-18.2 7.5h-34c-16.7 0-30.8 5.8-42.5 17.5-11.6 11.6-17.5 25.7-17.5 42.1v39.6c-6.8 3.3-12.5 8.3-17 14.8-4.4 6.5-6.7 14-6.7 22.5 0 11.3 4 20.9 12 28.8 8 7.9 17.6 11.8 28.9 11.8 11.3 0 20.9-4 28.8-12 7.9-8 11.8-17.5 11.8-28.6 0-8.4-2.2-15.9-6.7-22.5-4.4-6.5-10.1-11.5-17-14.8v-39.6c0-7.1 2.5-13.1 7.5-18.2 5-5 11-7.5 18.2-7.5h34c4.6 0 9.1-.5 13.3-1.5 4.2-1 8.3-2.5 12.4-4.5v71.3c-7.1 3.3-12.9 8.3-17.3 14.8s-6.7 14-6.7 22.5c0 11.3 4 20.9 12 28.8 8 7.9 17.6 11.8 28.9 11.8 11.3 0 21-4 28.9-12 8-8 12-17.5 12-28.6 0-8.4-2.2-15.9-6.7-22.5-4.4-6.5-10.2-11.5-17.3-14.8v-71.3c4 2 8.1 3.5 12.4 4.5 4.2 1 8.7 1.5 13.3 1.5h34c7.1 0 13.1 2.5 18.2 7.5 5 5 7.5 11 7.5 18.2v39.6c-6.8 3.3-12.5 8.3-17 14.8-4.4 6.5-6.7 14-6.7 22.5 0 11.3 3.9 20.9 11.8 28.8 7.9 7.9 17.5 11.8 28.8 11.8s21-4 28.9-12c7.9-7.9 12-17.5 12-28.6 0-8.4-2.2-15.9-6.7-22.5-4-6.6-9.7-11.5-16.5-14.8z"/>
</svg>

<?xml version="1.0" encoding="UTF-8"?>
<svg width="512px" height="512px" viewBox="0 0 512 512" version="1.1" xmlns="http://www.w3.org/2000/svg" xmlns:xlink="http://www.w3.org/1999/xlink">
    <!-- Generator: Sketch 62 (91390) - https://sketch.com -->
    <title>division</title>
    <desc>Created with Sketch.</desc>
    <g id="division" stroke="none" stroke-width="1" fill="none" fill-rule="evenodd">
        <path d="M375.4,392.5 C368.9,392.5 363.4,390.1 358.7,385.5 C354.1,380.9 351.7,375.3 351.7,368.8 C351.7,362.1 354.1,356.5 358.7,352 C363.3,347.4 368.9,345.2 375.4,345.2 C382.1,345.2 387.7,347.5 392.2,352 C396.8,356.6 399,362.1 399,368.8 C399,375.3 396.7,380.8 392.2,385.5 C387.7,390.3 382.1,392.5 375.4,392.5 Z M256.2,392.5 C249.7,392.5 244.2,390.1 239.5,385.5 C234.9,380.9 232.5,375.3 232.5,368.8 C232.5,362.1 234.9,356.5 239.5,352 C244.1,347.5 249.7,345.2 256.2,345.2 C262.7,345.2 268.2,347.5 272.9,352 C277.5,356.6 279.9,362.1 279.9,368.8 C279.9,375.3 277.5,380.8 272.9,385.5 C268.2,390.3 262.7,392.5 256.2,392.5 Z M137.1,392.5 C130.4,392.5 124.8,390.1 120.3,385.5 C115.7,380.9 113.5,375.3 113.5,368.8 C113.5,362.1 115.8,356.5 120.3,352 C124.8,347.5 130.4,345.2 137.1,345.2 C143.6,345.2 149.1,347.5 153.6,352 C158.2,356.6 160.4,362.1 160.4,368.8 C160.4,375.3 158.1,380.8 153.6,385.5 C148.9,390.3 143.5,392.5 137.1,392.5 Z M256.2,106.5 C262.7,106.5 268.2,108.8 272.9,113.3 C277.5,117.9 279.9,123.4 279.9,130.1 C279.9,136.6 277.5,142.1 272.9,146.8 C268.3,151.4 262.7,153.8 256.2,153.8 C249.7,153.8 244.2,151.4 239.5,146.8 C234.9,142.2 232.5,136.6 232.5,130.1 C232.5,123.4 234.9,117.8 239.5,113.3 C244.3,108.8 249.8,106.5 256.2,106.5 Z M392.8,331.7 L392.8,292.1 C392.8,275.7 387,261.7 375.3,250 C363.6,238.3 349.5,232.5 332.8,232.5 L298.8,232.5 C291.7,232.5 285.7,230 280.6,225 C275.6,220 273.1,214 273.1,206.8 L273.1,167.2 C280.2,164.1 286,159.2 290.4,152.6 C294.8,146 297.1,138.5 297.1,130.3 C297.1,119 293.1,109.3 285.1,101.4 C277.1,93.4 267.5,89.4 256.2,89.4 C244.9,89.4 235.2,93.4 227.3,101.4 C219.2,109.3 215.2,119 215.2,130.3 C215.2,138.5 217.4,146 221.9,152.6 C226.4,159.3 232.1,164.2 239.2,167.2 L239.2,206.8 C239.2,213.9 236.7,219.9 231.7,225 C226.7,230 220.7,232.5 213.5,232.5 L179.5,232.5 C162.8,232.5 148.7,238.3 137,250 C125.4,261.6 119.5,275.7 119.5,292.1 L119.5,331.7 C112.7,335 107,340 102.5,346.5 C98.1,353 95.8,360.5 95.8,369 C95.8,380.3 99.8,389.9 107.8,397.8 C115.8,405.7 125.4,409.6 136.7,409.6 C148,409.6 157.6,405.6 165.5,397.6 C173.4,389.6 177.3,380.1 177.3,369 C177.3,360.6 175.1,353.1 170.6,346.5 C166.2,340 160.5,335 153.6,331.7 L153.6,292.1 C153.6,285 156.1,279 161.1,273.9 C166.1,268.9 172.1,266.4 179.3,266.4 L213.3,266.4 C217.9,266.4 222.4,265.9 226.6,264.9 C230.8,263.9 234.9,262.4 239,260.4 L239,331.7 C231.9,335 226.1,340 221.7,346.5 C217.3,353 215,360.5 215,369 C215,380.3 219,389.9 227,397.8 C235,405.7 244.6,409.6 255.9,409.6 C267.2,409.6 276.9,405.6 284.8,397.6 C292.8,389.6 296.8,380.1 296.8,369 C296.8,360.6 294.6,353.1 290.1,346.5 C285.7,340 279.9,335 272.8,331.7 L272.8,260.4 C276.8,262.4 280.9,263.9 285.2,264.9 C289.4,265.9 293.9,266.4 298.5,266.4 L332.5,266.4 C339.6,266.4 345.6,268.9 350.7,273.9 C355.7,278.9 358.2,284.9 358.2,292.1 L358.2,331.7 C351.4,335 345.7,340 341.2,346.5 C336.8,353 334.5,360.5 334.5,369 C334.5,380.3 338.4,389.9 346.3,397.8 C354.2,405.7 363.8,409.6 375.1,409.6 C386.4,409.6 396.1,405.6 404,397.6 C411.9,389.7 416,380.1 416,369 C416,360.6 413.8,353.1 409.3,346.5 C405.3,339.9 399.6,335 392.8,331.7 L392.8,331.7 Z" id="Shape" fill="#000000" fill-rule="nonzero"></path>
    </g>
</svg>
